X:562
T:O! the britches full of stitches
T:The breeches full of stitches
R:Polka
O:Ireland
S:My arrangement from various sources
Z:Transcription, arrangement, chords:Mike Long
M:2/4
L:1/8
K:A
"A"A>B cA|"D"BA ce|"A"A>B cA|"D"BA F2|\
"A"A>B cA|"D"BA ce|A>B AF|"E"FE E2:|
|:"A"e>f ec|"D"BA Bc|"A"e>f ec|"D"BA F2|\
"A"e>f ec|"D"BA Bc|A>B AF|"E"FE E2:|
